X: 1072
T: Empty Wallet Waltz
C: Fredrik Jakobsson
S: Spelas av [[!Krack]]
M: 3/4
L: 1/8
R: vals
K: G
D2|:B3A G2|E4 GE|A4 BG|A4 B2|
d3B G2|e2 d2 BG|A3B AG|E4 D2|
B3A G2|E4 GE|A4 BG|A4 B2|
G3F E2|E2 F2 D2|E6-|E4 D2:|
|:Bd d2 BG|Ad d2 A2|GF GB AG|FG FE D2|
EG G2 E2|DG G2 AB|c3B AG|1A3B/A/ GA:|2G4||
(:musicend:)

ABC delvis kopierad från [[http://www.thesession.org/members/display/42220|ruthruin]] på [[http://www.thesession.org/tunes/display/9270|The Session]]
(:music:)
